X: 2
T: Garrett Barry's
R: reel
M: 4/4
L: 1/8
K: Gmaj
~G3e dGBd|edBe dBA2|~G3B dG (3Bcd|AEE2 GED2|~G3B d2Bd|edcB cdeg|edcB cde2|1gedB AGEF:|2gedB agef||:~g3b agf2|edBe dG (3Bcd|g2gb agf2|eaag agef|~g2bg agf2|edBe dG (3Bcd|edcB c2ef|1gedB age2:|2gedB AGEF||


Tune 3434	Setting 3434

